X: 138
T: Farewell To Erin (Ireland)
R: reel
M: 4/4
L: 1/8
K:Ador
"Am"~A,3C ~E3F|"G"GEDB, G,B,DB,|"Am"A,2A,C E2EF|"G"GEDG "Am"EA,A,G,|
"Am"~A,3C ~E3F|"G"GEDB, D2g2|"C"edeg "Am"~a2ba|"G"gedB "Am"BA~A2:|
|: "Am"~a3b agef|"G"~g3a gedg|"Am"~a3b agef|"G"gedB "Am"BA~A2|
"Am"agef "C"~g3e|"G"dedB GABd|"Am"cA (3Bcd edea|"G"gedB "Am"BA~A2:|
|: "Am"eAcA eAcA|"G"~d3B GABd|"Am"eAcA ~e3a|"G"gedB "Am"BA~A2|
"Am"eAcA eAcA|"G"dedB GABd|"Am"cA (3Bcd edea|"G"gedB "Am"BA~A2:|
|: "A"ae^ce aece|"G"gdBd gdB^g|"A"ae^ce ~a3f|"G"gedB "Am"BA~A2|
"Am"agef "C"~g3e|"G"dedB GABd|"Am"cA (3Bcd edea|"G"gedB "Am"BA~A2:|


